src/renderer/assets/svg/icon-theme-day.svg

<svg width="22" height="22" viewBox="0 0 22 22" fill="none" xmlns="http://www.w3.org/2000/svg">
<path fill-rule="evenodd" clip-rule="evenodd" d="M11.005 0.0499878H11.015C11.565 0.0499878 12.005 0.489988 12.005 1.03999V2.00999C12.005 2.55999 11.565 2.99999 11.005 2.98999H10.995C10.445 2.98999 10.005 2.54999 10.005 1.99999V1.03999C10.005 0.489988 10.445 0.0499878 11.005 0.0499878ZM5.05501 3.63999L4.665 3.24999C4.275 2.85999 3.645 2.86999 3.265 3.24999L3.255 3.25999C2.865 3.64999 2.865 4.27999 3.255 4.65999L3.645 5.04999C4.035 5.43999 4.655 5.43999 5.045 5.04999L5.05501 5.03999C5.445 4.65999 5.445 4.01999 5.05501 3.63999ZM2.015 9.99999H0.995005C0.445005 9.99999 0.00500488 10.44 0.00500488 10.99V11C0.00500488 11.55 0.445005 11.99 0.995005 11.99H2.005C2.565 12 3.005 11.56 3.005 11.01V11C3.005 10.44 2.565 9.99999 2.015 9.99999ZM18.755 3.25999C18.365 2.86999 17.735 2.86999 17.345 3.24999L16.955 3.63999C16.565 4.02999 16.565 4.65999 16.955 5.03999L16.965 5.04999C17.355 5.43999 17.985 5.43999 18.365 5.04999L18.755 4.65999C19.145 4.26999 19.145 3.64999 18.755 3.25999ZM17.335 18.75L16.945 18.36C16.555 17.97 16.555 17.35 16.955 16.95C17.335 16.57 17.965 16.56 18.355 16.95L18.745 17.34C19.135 17.73 19.135 18.36 18.745 18.75C18.355 19.14 17.725 19.14 17.335 18.75ZM19.005 10.99V11C19.005 11.55 19.445 11.99 19.995 11.99H21.005C21.555 11.99 21.995 11.55 21.995 11V10.99C21.995 10.44 21.555 9.99999 21.005 9.99999H19.995C19.445 9.99999 19.005 10.44 19.005 10.99ZM5.005 11C5.005 7.68999 7.695 4.99999 11.005 4.99999C14.315 4.99999 17.005 7.68999 17.005 11C17.005 14.31 14.315 17 11.005 17C7.695 17 5.005 14.31 5.005 11ZM10.995 21.95H11.005C11.555 21.95 11.995 21.51 11.995 20.96V20C11.995 19.45 11.555 19.01 11.005 19.01H10.995C10.445 19.01 10.005 19.45 10.005 20V20.96C10.005 21.51 10.445 21.95 10.995 21.95ZM4.665 18.74C4.275 19.13 3.645 19.13 3.255 18.74C2.865 18.35 2.865 17.73 3.245 17.33L3.635 16.94C3.82184 16.7527 4.07549 16.6475 4.34 16.6475C4.60452 16.6475 4.85817 16.7527 5.045 16.94L5.05501 16.95C5.435 17.33 5.445 17.96 5.05501 18.35L4.665 18.74Z" fill="#616B75"/>
</svg>

<svg xmlns="http://www.w3.org/2000/svg" width="22" height="22" fill="none" viewBox="0 0 22 22"><path fill="#616B75" fill-rule="evenodd" d="M11.005.05h.01c.55 0 .99.44.99.99v.97c0 .55-.44.99-1 .98h-.01c-.55 0-.99-.44-.99-.99v-.96c0-.55.44-.99 1-.99m-5.95 3.59-.39-.39a.993.993 0 0 0-1.4 0l-.01.01a.984.984 0 0 0 0 1.4l.39.39c.39.39 1.01.39 1.4 0l.01-.01a.984.984 0 0 0 0-1.4M2.015 10H.995c-.55 0-.99.44-.99.99V11c0 .55.44.99.99.99h1.01c.56.01 1-.43 1-.98V11c0-.56-.44-1-.99-1m16.74-6.74c-.39-.39-1.02-.39-1.41-.01l-.39.39a.984.984 0 0 0 0 1.4l.01.01c.39.39 1.02.39 1.4 0l.39-.39a.984.984 0 0 0 0-1.4m-1.42 15.49-.39-.39a.987.987 0 0 1 .01-1.41.993.993 0 0 1 1.4 0l.39.39a.996.996 0 1 1-1.41 1.41m1.67-7.76V11c0 .55.44.99.99.99h1.01c.55 0 .99-.44.99-.99v-.01c0-.55-.44-.99-.99-.99h-1.01c-.55 0-.99.44-.99.99m-14 .01c0-3.31 2.69-6 6-6s6 2.69 6 6-2.69 6-6 6-6-2.69-6-6m5.99 10.95h.01c.55 0 .99-.44.99-.99V20c0-.55-.44-.99-.99-.99h-.01c-.55 0-.99.44-.99.99v.96c0 .55.44.99.99.99m-6.33-3.21a.996.996 0 0 1-1.41 0c-.39-.39-.39-1.01-.01-1.41l.39-.39a.996.996 0 0 1 1.41 0l.01.01c.38.38.39 1.01 0 1.4z" clip-rule="evenodd"/></svg>
